data/core/assets/color-luts/AcePro2_I-Log_To_Rec.709_V1.0.cube
TITLE "Generated by Resolve"
LUT_3D_SIZE 5
0 0 0
0.312032 0.00129702 0
0.875944 0 0
1 0 0
1 0 0
0 0.198474 0
0.151583 0.155612 0
0.70956 0.0750896 0
1 0.00918593 0
1 0.0215915 0
0 0.528359 0
0 0.517983 0
0.446738 0.458488 0
1 0.37937 0
1 0.387335 0
0 0.978668 0
0 0.984665 0
0.150698 0.951507 0
0.837522 0.859785 0
1 0.843336 0
0 1 0
0 1 0
0.0661936 1 0
0.724285 1 0
1 1 0
0 0 0.372091
0.301457 0 0.30428
0.858137 0 0.162799
1 0 0.00077821
1 0 0
0 0.179431 0.178927
0.136324 0.140002 0.139574
0.689998 0.0787671 0.0434882
1 0.024033 0
1 0.0460212 0
0 0.519142 0
0 0.511421 0
0.442283 0.454292 0
1 0.381109 0
1 0.39472 0
0 0.975601 0
0 0.982574 0
0.150469 0.947555 0
0.831113 0.853635 0
1 0.836347 0
0 1 0
0 1 0
0.0612345 1 0
0.713237 1 0
1 1 0
0 0 1
0.162432 0 0.973541
0.804196 0 0.81445
1 0 0.665171
1 0 0.577035
0 0.123949 0.817182
0.0212558 0.0753185 0.77937
0.653101 0.0087129 0.666194
1 0 0.545434
1 0 0.507317
0 0.488136 0.487373
0 0.483574 0.48278
0.418662 0.429953 0.428656
1 0.391699 0.34226
1 0.411856 0.34548
0 0.958618 0.160861
0 0.964584 0.18114
0.131334 0.928847 0.144961
0.810254 0.832959 0.0317235
1 0.815534 0.0011902
0 1 0.0958419
0 1 0.113085
0.0328679 1 0.049485
0.685435 1 0
1 1 0
0 0 1
0.0055848 0 1
0.720241 0 1
1 0 1
1 0 1
0 0.0395819 1
0 0 1
0.560586 0 1
1 0 1
1 0 1
0 0.441291 1
0 0.436286 1
0.303212 0.370001 1
1 0.310399 1
1 0.339132 1
0 0.920714 0.919402
0 0.926665 0.925231
0.0823072 0.890166 0.88867
0.767712 0.788418 0.786023
1 0.786877 0.739651
0 1 0.860655
0 1 0.85568
0 1 0.793286
0.627848 1 0.648234
0.976852 1 0.580438
0 0 1
0 0 1
0.627878 0 1
1 0 1
1 0 1
0 0 1
0 0 1
0.470878 0 1
1 0 1
1 0 1
0 0.420005 1
0 0.417563 1
0.257832 0.350851 1
1 0.261418 1
1 0.304723 1
0 0.911879 1
0 0.918593 1
0 0.879347 1
0.715236 0.770077 1
1 0.746105 1
0 1 1
0 1 1
0 1 1
0.601785 1 1
0.955337 0.981094 0.978134
