data/core/assets/color-luts/AcePro2_I-Log_To_Rec.709_V1.0.cube
TITLE "Generated by Resolve"
LUT_3D_SIZE 9
0 0 0
0.152407 0 0
0.312032 0.00129702 0
0.577722 0 0
0.875944 0 0
1 0 0
1 0 0
1 0 0
1 0 0
0 0.0983139 0
0.0718547 0.0737926 0
0.227329 0.0514076 0
0.479011 0.0110323 0
0.774289 0 0
1 0 0
1 0 0
1 0 0
1 0 0
0 0.198474 0
0 0.174731 0
0.151583 0.155612 0
0.403906 0.115236 0
0.70956 0.0750896 0
1 0.0275578 0
1 0.00918593 0
1 0.00788891 0
1 0.0215915 0
0 0.341863 0
0 0.325505 0
0.0309911 0.315084 0
0.276448 0.283726 0
0.594537 0.236744 0
0.935088 0.192645 0
1 0.171603 0
1 0.16788 0
1 0.182605 0
0 0.528359 0
0 0.51986 0
0 0.517983 0
0.127184 0.498985 0
0.446738 0.458488 0
0.80322 0.408667 0
1 0.37937 0
1 0.371313 0
1 0.387335 0
0 0.751354 0
0 0.748745 0
0 0.751156 0
0 0.740658 0
0.278798 0.707561 0
0.644099 0.661234 0
0.961074 0.627451 0
1 0.616434 0
1 0.629343 0
0 0.978668 0
0 0.979828 0
0 0.984665 0
0 0.978347 0
0.150698 0.951507 0
0.510903 0.902449 0
0.837522 0.859785 0
1 0.840497 0
1 0.843336 0
0 1 0
0 1 0
0 1 0
0 1 0
0.0759899 1 0
0.426337 1 0
0.755276 1 0
0.98085 1 0
1 1 0
0 1 0
0 1 0
0 1 0
0 1 0
0.0661936 1 0
0.406043 1 0
0.724285 1 0
0.947875 1 0
1 1 0
0 0 0.173114
0.146441 0 0.147402
0.313344 0 0.117464
0.576379 0 0.0517433
0.87042 0 0
1 0 0
1 0 0
1 0 0
1 0 0
0 0.088014 0.0878767
0.061738 0.0634012 0.0632181
0.213626 0.0467231 0.0384833
0.466239 0.00129702 0
0.762234 0 0
1 0 0
1 0 0
1 0 0
1 0 0
0 0.188128 0.0114595
0 0.16492 0
0.143328 0.14725 0
0.394461 0.108461 0
0.70013 0.0686046 0
1 0.0290074 0
1 0.0132296 0
1 0.0145876 0
1 0.0307774 0
0 0.333913 0
0 0.317647 0
0.0267338 0.308339 0
0.271061 0.278279 0
0.589929 0.232761 0
0.930709 0.189609 0
1 0.173129 0
1 0.172152 0
1 0.187823 0
0 0.523125 0
0 0.514778 0
0 0.513558 0
0.124147 0.495613 0
0.443656 0.455634 0
0.800229 0.40621 0
1 0.378897 0
1 0.372427 0
1 0.390112 0
0 0.748104 0
0 0.745708 0
0 0.748409 0
0 0.738628 0
0.276997 0.706035 0
0.642222 0.659373 0
0.958267 0.626383 0
1 0.615778 0
1 0.62884 0
0 0.976135 0
0 0.978103 0
0 0.982986 0
0 0.976471 0
0.149783 0.948882 0
0.508949 0.899199 0
0.833692 0.856077 0
1 0.836728 0
1 0.839139 0
0 1 0
0 1 0
0 1 0
0 1 0
0.0746777 1 0
0.423926 1 0
0.74995 1 0
0.972854 0.999039 0
1 0.992248 0
0 1 0
0 1 0
0 1 0
0 1 0
0.0627298 1 0
0.400931 1 0
0.717418 1 0
0.940108 1 0
1 1 0
0 0 0.372091
0.128405 0 0.340017
0.301457 0 0.30428
0.564614 0 0.239902
0.858137 0 0.162799
1 0 0.0755016
1 0 0.00077821
1 0 0
1 0 0
0 0.0793622 0.265263
0.0361181 0.0482032 0.240238
0.204822 0.0291447 0.209491
0.458366 0 0.152239
0.756619 0 0.0746471
1 0 0
1 0 0
1 0 0
1 0 0
0 0.179431 0.178927
0 0.156268 0.155978
0.136324 0.140002 0.139574
0.381155 0.113802 0.0974746
0.689998 0.0787671 0.0434882
1 0.0377356 0
1 0.024033 0
1 0.0268864 0
1 0.0460212 0
0 0.327459 0.0438697
0 0.312139 0.0332189
0.0229343 0.303792 0.0271916
0.26743 0.274891 0.00428778
0.585519 0.230945 0
0.926116 0.192645 0
1 0.178744 0
1 0.179187 0
1 0.195468 0
0 0.519142 0
0 0.512001 0
0 0.511421 0
0.122667 0.494179 0
0.442283 0.454292 0
0.798062 0.406531 0
1 0.381109 0
1 0.376257 0
1 0.39472 0
0 0.74612 0
0 0.744198 0
0 0.747295 0
0 0.737774 0
0.278279 0.705959 0
0.642481 0.659876 0
0.956405 0.627375 0
1 0.617105 0
1 0.629923 0
0 0.975601 0
0 0.97734 0
0 0.982574 0
0 0.975341 0
0.150469 0.947555 0
0.508705 0.897154 0
0.831113 0.853635 0
1 0.834516 0
1 0.836347 0
0 1 0
0 1 0
0 1 0
0 1 0
0.0761273 1 0
0.424216 1 0
0.746715 1 0
0.96611 0.992309 0
1 0.985214 0
0 1 0
0 1 0
0 1 0
0 1 0
0.0612345 1 0
0.398123 1 0
0.713237 1 0
0.933516 1 0
1 1 0
0 0 0.683879
0.0446937 0 0.654963
0.262684 0 0.619776
0.53875 0 0.5449
0.833967 0 0.465217
1 0 0.382376
1 0 0.308614
1 0 0.238346
1 0 0.200443
0 0.0490425 0.567697
0 0.0184787 0.537438
0.155856 0 0.514168
0.434607 0 0.441413
0.734905 0 0.36434
1 0 0.284306
1 0 0.217807
1 0 0.158068
1 0 0.131685
0 0.158007 0.46833
0 0.134737 0.443381
0.0899214 0.11339 0.4309
0.368078 0.0829175 0.377813
0.678004 0.0437629 0.309545
1 0 0.235325
1 0 0.175189
1 0 0.124895
1 0 0.112764
0 0.311635 0.311101
0 0.29749 0.296971
0.0116579 0.290135 0.289647
0.256016 0.262928 0.262119
0.562875 0.238148 0.211444
0.910384 0.204211 0.162539
1 0.19173 0.131106
1 0.192844 0.113085
1 0.209506 0.11902
0 0.508019 0.140673
0 0.501854 0.136034
0 0.502098 0.136934
0.115724 0.485649 0.123339
0.43444 0.446754 0.0858015
0.789288 0.403128 0.036347
1 0.38088 0.0122072
1 0.378363 0.00378424
1 0.397574 0.0108949
0 0.738247 0
0 0.737179 0
0 0.741024 0
0 0.731655 0
0.273365 0.70103 0
0.637522 0.655131 0
0.951034 0.622995 0
1 0.613916 0
1 0.62623 0
0 0.970748 0
0 0.972534 0
0 0.977203 0
0 0.969741 0
0.145022 0.941543 0
0.50132 0.890791 0
0.823423 0.846021 0
1 0.827222 0
1 0.828748 0
0 1 0
0 1 0
0 1 0
0 1 0
0.0698863 1 0
0.416388 1 0
0.73756 1 0
0.9552 0.981369 0
1 0.973999 0
0 1 0
0 1 0
0 1 0
0 1 0
0.0505989 1 0
0.386557 1 0
0.70161 1 0
0.922332 1 0
1 1 0
0 0 1
0 0 0.994644
0.162432 0 0.973541
0.497322 0 0.899367
0.804196 0 0.81445
1 0 0.731884
1 0 0.665171
1 0 0.605234
1 0 0.577035
0 0.00959792 0.913054
0 0 0.8822
0.0789044 0 0.857832
0.388586 0 0.800656
0.706996 0 0.717662
1 0 0.638529
1 0 0.581292
1 0 0.532677
1 0 0.517311
0 0.123949 0.817182
0 0.0991531 0.79382
0.0212558 0.0753185 0.77937
0.314916 0.00761425 0.746502
0.653101 0.0087129 0.666194
0.978439 0 0.594598
1 0 0.545434
1 0 0.508324
1 0 0.507317
0 0.287022 0.663371
0 0.272541 0.651621
0 0.264195 0.647425
0.194903 0.230854 0.631708
0.553689 0.196521 0.571359
0.901808 0.163943 0.506188
1 0.141329 0.46627
1 0.133227 0.438636
1 0.144839 0.442847
0 0.488136 0.487373
0 0.482734 0.481956
0 0.483574 0.48278
0.0984054 0.468009 0.467185
0.418662 0.429953 0.428656
0.755718 0.409125 0.370108
1 0.391699 0.34226
1 0.391699 0.332204
1 0.411856 0.34548
0 0.721889 0.302983
0 0.721157 0.303334
0 0.725567 0.309758
0 0.717357 0.301717
0.259571 0.687068 0.271321
0.623926 0.64181 0.222248
0.93611 0.61239 0.179004
1 0.605158 0.165972
1 0.617441 0.173693
0 0.958618 0.160861
0 0.960494 0.168078
0 0.964584 0.18114
0 0.956909 0.174304
0.131334 0.928847 0.144961
0.48748 0.877867 0.0890211
0.810254 0.832959 0.0317235
1 0.814618 0.00177005
1 0.815534 0.0011902
0 1 0.0888533
0 1 0.0971847
0 1 0.110094
0 1 0.101595
0.0560464 1 0.0713359
0.400351 1 0.00656138
0.722805 0.997299 0
0.940414 0.966506 0
1 0.959274 0
0 1 0.0958419
0 1 0.103929
0 1 0.113085
0 1 0.0937972
0.0328679 1 0.049485
0.367651 1 0
0.685435 1 0
0.907393 1 0
1 1 0
0 0 1
0 0 1
0.0927291 0 1
0.426429 0 1
0.765988 0 1
1 0 1
1 0 1
1 0 0.980377
1 0 0.959335
0 0 1
0 0 1
0 0 1
0.298146 0 1
0.666194 0 1
0.993362 0 1
1 0 0.956298
1 0 0.918807
1 0 0.909865
0 0.0810864 1
0 0.0534676 1
0 0.0274662 1
0.224964 0 1
0.611612 0 1
0.953933 0 0.971389
1 0 0.925368
1 0 0.898375
1 0 0.901976
0 0.254536 1
0 0.239124 1
0 0.229999 1
0.132586 0.194324 1
0.504158 0.121111 0.976669
0.880507 0.122148 0.901564
1 0.118563 0.860471
1 0.113115 0.842191
1 0.125353 0.850858
0 0.462699 0.875731
0 0.457328 0.872648
0 0.457938 0.874739
0.00553903 0.44155 0.865705
0.344289 0.395544 0.849195
0.753002 0.359213 0.781537
1 0.346136 0.735363
1 0.340627 0.722408
1 0.357137 0.732601
0 0.699672 0.69865
0 0.699275 0.698207
0 0.7037 0.702571
0 0.696956 0.695811
0.238468 0.66743 0.666117
0.604883 0.621195 0.619318
0.900267 0.608927 0.564706
1 0.612299 0.554788
1 0.627924 0.563912
0 0.937728 0.559442
0 0.939971 0.565835
0 0.943786 0.576165
0 0.935927 0.567681
0.107897 0.908034 0.537163
0.463371 0.856199 0.479454
0.787671 0.810071 0.422782
1 0.794553 0.386191
1 0.79585 0.385687
0 1 0.484489
0 1 0.491188
0 1 0.502235
0 1 0.491447
0.0305943 1 0.459205
0.372686 1 0.390127
0.696086 0.972488 0.316884
0.914946 0.941024 0.26746
1 0.934569 0.246128
0 1 0.491691
0 1 0.496757
0 1 0.50312
0 1 0.480919
0.00340276 1 0.434791
0.337133 1 0.355673
0.657237 1 0.273945
0.88217 1 0.219928
1 1 0.197299
0 0 1
0 0 1
0.0055848 0 1
0.338048 0 1
0.720241 0 1
1 0 1
1 0 1
1 0 1
1 0 1
0 0 1
0 0 1
0 0 1
0.226032 0 1
0.616739 0 1
0.968475 0 1
1 0 1
1 0 1
1 0 1
0 0.0395819 1
0 0.0138857 1
0 0 1
0.177569 0 1
0.560586 0 1
0.931212 0 1
1 0 1
1 0 1
1 0 1
0 0.22678 1
0 0.211383 1
0 0.201953 1
0.0683757 0.165789 1
0.439338 0.0198978 1
0.857603 0.0568551 1
1 0.0706493 1
1 0.0832532 1
1 0.108415 1
0 0.441291 1
0 0.435935 1
0 0.436286 1
0 0.419242 1
0.303212 0.370001 1
0.719066 0.307866 1
1 0.310399 1
1 0.316442 1
1 0.339132 1
0 0.681346 1
0 0.681331 1
0 0.686152 1
0 0.679164 1
0.158175 0.648844 1
0.547417 0.597345 0.988128
0.902434 0.567178 0.935134
1 0.567712 0.907835
1 0.581415 0.90695
0 0.920714 0.919402
0 0.922759 0.921386
0 0.926665 0.925231
0 0.918227 0.916747
0.0823072 0.890166 0.88867
0.440284 0.836988 0.835081
0.767712 0.788418 0.786023
0.972091 0.77908 0.74992
1 0.786877 0.739651
0 1 0.86099
0 1 0.860685
0 1 0.864103
0 1 0.851057
0.00563058 1 0.819852
0.344869 1 0.755657
0.66891 0.948272 0.688319
0.890318 0.914656 0.644953
1 0.911498 0.618799
0 1 0.860655
0 1 0.857725
0 1 0.85568
0 1 0.834028
0 1 0.793286
0.306111 1 0.722408
0.627848 1 0.648234
0.855497 1 0.599054
0.976852 1 0.580438
0 0 1
0 0 1
0 0 1
0.272786 0 1
0.664424 0 1
1 0 1
1 0 1
1 0 1
1 0 1
0 0 1
0 0 1
0 0 1
0.175509 0 1
0.558099 0 1
0.940612 0 1
1 0 1
1 0 1
1 0 1
0 0.00485237 1
0 0 1
0 0 1
0.121798 0 1
0.502556 0 1
0.905394 0 1
1 0 1
1 0 1
1 0 1
0 0.201785 1
0 0.186664 1
0 0.178058 1
0.00448615 0.141848 1
0.381384 0 1
0.831891 0 1
1 0.0152132 1
1 0.0393225 1
1 0.0670787 1
0 0.424521 1
0 0.419883 1
0 0.420768 1
0 0.404013 1
0.271855 0.354192 1
0.684627 0.26302 1
1 0.277745 1
1 0.290501 1
1 0.312352 1
0 0.669001 1
0 0.669429 1
0 0.675822 1
0 0.668925 1
0.114992 0.637919 1
0.504005 0.578958 1
0.875685 0.533623 1
1 0.542672 1
1 0.553307 1
0 0.911772 1
0 0.913649 1
0 0.918074 1
0 0.909346 1
0 0.880903 1
0.379553 0.826001 1
0.734478 0.775464 1
0.971511 0.753948 1
1 0.755978 0.988617
0 1 1
0 1 1
0 1 1
0 1 1
0 1 1
0.325658 0.995621 0.993683
0.651942 0.9346 0.932174
0.875486 0.899092 0.896376
0.989731 0.895201 0.880079
0 1 1
0 1 1
0 1 1
0 1 1
0 1 1
0.285924 1 0.965957
0.609369 1 0.901335
0.838605 0.997559 0.860426
0.960571 0.986389 0.847776
0 0 1
0 0 1
0 0 1
0.250828 0 1
0.627878 0 1
0.994492 0 1
1 0 1
1 0 1
1 0 1
0 0 1
0 0 1
0 0 1
0.142061 0 1
0.521859 0 1
0.923705 0 1
1 0 1
1 0 1
1 0 1
0 0 1
0 0 1
0 0 1
0.089662 0 1
0.470878 0 1
0.891676 0 1
1 0 1
1 0 1
1 0 1
0 0.190646 1
0 0.176776 1
0 0.169085 1
0 0.132265 1
0.377737 0.00196841 1
0.818082 0 1
1 0 1
1 0.0141146 1
1 0.0460822 1
0 0.420005 1
0 0.416144 1
0 0.417563 1
0 0.400946 1
0.257832 0.350851 1
0.666056 0.239734 1
1 0.261418 1
1 0.278798 1
1 0.304723 1
0 0.667597 1
0 0.668757 1
0 0.676432 1
0 0.669642 1
0.0936599 0.637568 1
0.495369 0.576623 1
0.861799 0.519097 1
1 0.531044 1
1 0.548363 1
0 0.911879 1
0 0.914153 1
0 0.918593 1
0 0.909194 1
0 0.879347 1
0.362661 0.822721 1
0.715236 0.770077 1
0.957992 0.743114 1
1 0.746105 1
0 1 1
0 1 1
0 1 1
0 1 1
0 1 1
0.283085 0.991699 1
0.625559 0.929992 1
0.859586 0.893416 1
0.988006 0.884337 1
0 1 1
0 1 1
0 1 1
0 1 1
0 1 1
0.275456 1 1
0.601785 1 1
0.83299 0.992386 0.989487
0.955337 0.981094 0.978134
