data/core/assets/color-luts/AcePro2_I-Log_To_Rec.709_V1.0.cube
TITLE "Generated by Resolve"
LUT_3D_SIZE 33
0 0 0
0.0368048 0 0
0.0763867 0 0
0.114916 0 0
0.152407 0 0
0.181857 0 0
0.21828 0.00149538 0
0.259663 0.00202945 0
0.312032 0.00129702 0
0.373587 0 0
0.438865 0 0
0.507378 0 0
0.577722 0 0
0.650111 0 0
0.724178 0 0
0.800519 0 0
0.875944 0 0
0.950561 0 0
1 0 0
1 0 0
1 0 0
1 0 0
1 0 0
1 0 0
1 0 0
1 0 0
1 0 0
1 0 0
1 0 0
1 0 0
1 0 0
1 0 0
1 0 0
0 0.023621 0
0.017319 0.017792 0
0.057496 0.0115358 0
0.0952926 0.00782788 0
0.130358 0.00762951 0
0.163943 0.00869764 0
0.199405 0.00901808 0
0.239643 0.00851453 0
0.289921 0.00695811 0
0.34966 0.00392157 0
0.414908 1.5259e-05 0
0.48246 0 0
0.553719 0 0
0.625696 0 0
0.698543 0 0
0.774868 0 0
0.850477 0 0
0.926055 0 0
0.999039 0 0
1 0 0
1 0 0
1 0 0
1 0 0
1 0 0
1 0 0
1 0 0
1 0 0
1 0 0
1 0 0
1 0 0
1 0 0
1 0 0
1 0 0
0 0.0490272 0
0 0.043183 0
0.035523 0.0364843 0
0.0748455 0.0302739 0
0.112978 0.0247959 0
0.147814 0.0212711 0
0.18294 0.0186923 0
0.221805 0.0156405 0
0.269596 0.0110323 0
0.326543 0.00759899 0
0.390082 0.0033875 0
0.457008 0 0
0.527977 0 0
0.599222 0 0
0.672114 0 0
0.746868 0 0
0.82295 0 0
0.899855 0 0
0.974243 0 0
1 0 0
1 0 0
1 0 0
1 0 0
1 0 0
1 0 0
1 0 0
1 0 0
1 0 0
1 0 0
1 0 0
1 0 0
1 0 0
1 0 0
0 0.0738384 0
0 0.0678416 0
0.0142519 0.0612192 0
0.0535744 0.055024 0
0.0918746 0.0488899 0
0.127047 0.0442969 0
0.161883 0.0400092 0
0.200351 0.0353857 0
0.248707 0.0294957 0
0.30518 0.0222782 0
0.366995 0.0133822 0
0.43241 0.0049897 0
0.502556 0 0
0.57377 0 0
0.645518 0 0
0.721401 0 0
0.797864 0 0
0.874052 0 0
0.94963 0 0
1 0 0
1 0 0
1 0 0
1 0 0
1 0 0
1 0 0
1 0 0
1 0 0
1 0 0
1 0 0
1 0 0
1 0 0
1 0 0
1 0 0
0 0.0983139 0
0 0.0923171 0
0 0.0857099 0
0.0338903 0.0796063 0
0.0718547 0.0737926 0
0.107195 0.0687877 0
0.141741 0.063859 0
0.179446 0.0584421 0
0.227329 0.0514076 0
0.282734 0.0432898 0
0.34432 0.0344244 0
0.410117 0.0243534 0
0.479011 0.0110323 0
0.550042 0.00137331 0
0.621759 0 0
0.697536 0 0
0.774289 0 0
0.85156 0 0
0.927687 0 0
1 0 0
1 0 0
1 0 0
1 0 0
1 0 0
1 0 0
1 0 0
1 0 0
1 0 0
1 0 0
1 0 0
1 0 0
1 0 0
1 0 0
0 0.122164 0
0 0.115892 0
0 0.109529 0
0.0171664 0.103243 0
0.0549935 0.0973373 0
0.090074 0.0924849 0
0.12401 0.0877394 0
0.162051 0.0821088 0
0.209003 0.0745403 0
0.264027 0.0653697 0
0.325002 0.0559396 0
0.39057 0.0463722 0
0.460426 0.0357061 0
0.531792 0.0244144 0
0.604227 0.009308 0
0.679255 0.000381476 0
0.756146 0 0
0.834501 0 0
0.911788 0 0
0.98735 0 0
1 0 0
1 0 0
1 0 0
1 0 0
1 0 0
1 0 0
1 0 0
1 0 0
1 0 0
1 0 0
1 0 0
1 0 0
1 0 0
0 0.145632 0
0 0.1393 0
0 0.132967 0
0.00114443 0.126635 0
0.0396124 0.120668 0
0.0743572 0.11603 0
0.108568 0.111467 0
0.146258 0.105989 0
0.192935 0.0983597 0
0.247761 0.088838 0
0.308125 0.0790417 0
0.373785 0.0687266 0
0.444068 0.0586709 0
0.516564 0.0491035 0
0.589197 0.0382239 0
0.665095 0.0258946 0
0.74313 0.00981155 0
0.821958 0.000579843 0
0.900084 0 0
0.97586 0 0
1 0 0
1 0 0
1 0 0
1 0 0
1 0 0
1 0 0
1 0 0
1 0 0
1 0 0
1 0 0
1 0 0
1 0 0
1 0 0
0 0.170459 0
0 0.164172 0
0 0.15761 0
0 0.151553 0
0.0212558 0.145785 0
0.0570077 0.141146 0
0.0913863 0.136858 0
0.128511 0.13193 0
0.17496 0.124865 0
0.229648 0.115404 0
0.290013 0.105058 0
0.356451 0.0946365 0
0.42678 0.0839551 0
0.499992 0.0738079 0
0.573907 0.064683 0
0.650523 0.0554055 0
0.729137 0.0444495 0
0.809003 0.0318914 0
0.888167 0.0133364 0
0.964385 0 0
1 0 0
1 0 0
1 0 0
1 0 0
1 0 0
1 0 0
1 0 0
1 0 0
1 0 0
1 0 0
1 0 0
1 0 0
1 0 0
0 0.198474 0
0 0.192264 0
0 0.185885 0
0 0.180072 0
0 0.174731 0
0.0335088 0.170459 0
0.0682383 0.16643 0
0.105531 0.161913 0
0.151583 0.155612 0
0.206271 0.147066 0
0.266926 0.137194 0
0.332418 0.126406 0
0.403906 0.115236 0
0.477531 0.104234 0
0.552346 0.0940108 0
0.629511 0.0846723 0
0.70956 0.0750896 0
0.790265 0.0659037 0
0.870207 0.0556191 0
0.948074 0.035584 0
1 0.0275578 0
1 0.018616 0
1 0.014313 0
1 0.011429 0
1 0.00918593 0
1 0.00764477 0
1 0.00703441 0
1 0.00709544 0
1 0.00788891 0
1 0.0100099 0
1 0.0132906 0
1 0.016968 0
1 0.0215915 0
0 0.229786 0
0 0.223865 0
0 0.217746 0
0 0.21236 0
0 0.207294 0
0.0059968 0.203296 0
0.0408484 0.200412 0
0.0785382 0.196582 0
0.124315 0.190738 0
0.178241 0.182956 0
0.238514 0.173831 0
0.303944 0.163241 0
0.375494 0.151598 0
0.449851 0.140337 0
0.526421 0.129351 0
0.603494 0.118807 0
0.683848 0.108507 0
0.766415 0.0985428 0
0.848341 0.0888533 0
0.928115 0.0782025 0
1 0.0661173 0
1 0.0643778 0
1 0.0618296 0
1 0.0588388 0
1 0.0563973 0
1 0.0533303 0
1 0.047364 0
1 0.0441291 0
1 0.0448005 0
1 0.0477302 0
1 0.0520485 0
1 0.057557 0
1 0.0633097 0
0 0.263508 0
0 0.258412 0
0 0.252964 0
0 0.2477 0
0 0.243458 0
0 0.239994 0
0.0114137 0.2374 0
0.0496376 0.234485 0
0.0953689 0.229328 0
0.14902 0.222049 0
0.207996 0.213489 0
0.273625 0.203616 0
0.345418 0.19205 0
0.420294 0.180331 0
0.497536 0.168612 0
0.575402 0.157794 0
0.656291 0.146654 0
0.739666 0.13576 0
0.823819 0.125811 0
0.905364 0.116136 0
0.983291 0.10135 0
1 0.0978103 0
1 0.0962539 0
1 0.0941176 0
1 0.0928969 0
1 0.0920882 0
1 0.092195 0
1 0.0924849 0
1 0.0939193 0
1 0.0968185 0
1 0.101183 0
1 0.105379 0
1 0.109834 0
0 0.30135 0
0 0.296132 0
0 0.291295 0
0 0.28658 0
0 0.282597 0
0 0.279896 0
0 0.277928 0
0.0189517 0.275105 0
0.0644541 0.27039 0
0.117632 0.264103 0
0.175937 0.256275 0
0.24062 0.246983 0
0.312337 0.236103 0
0.387945 0.224506 0
0.466407 0.212222 0
0.545235 0.20058 0
0.627222 0.189288 0
0.711742 0.178088 0
0.796857 0.167056 0
0.88014 0.156985 0
0.960891 0.147082 0
1 0.136965 0
1 0.134447 0
1 0.131746 0
1 0.129732 0
1 0.128069 0
1 0.126818 0
1 0.126665 0
1 0.128161 0
1 0.131136 0
1 0.134661 0
1 0.138735 0
1 0.143053 0
0 0.341863 0
0 0.337423 0
0 0.33286 0
0 0.328817 0
0 0.325505 0
0 0.32285 0
0 0.321187 0
0 0.319219 0
0.0309911 0.315084 0
0.0835279 0.309178 0
0.141299 0.302373 0
0.205631 0.294011 0
0.276448 0.283726 0
0.351858 0.272389 0
0.431647 0.260334 0
0.511955 0.248478 0
0.594537 0.236744 0
0.679728 0.224704 0
0.766659 0.213367 0
0.852445 0.202472 0
0.935088 0.192645 0
1 0.181689 0
1 0.178485 0
1 0.174624 0
1 0.171603 0
1 0.169436 0
1 0.167483 0
1 0.167132 0
1 0.16788 0
1 0.170504 0
1 0.174029 0
1 0.177996 0
1 0.182605 0
0 0.385061 0
0 0.381262 0
0 0.377203 0
0 0.37351 0
0 0.370367 0
0 0.368719 0
0 0.367468 0
0 0.365469 0
0 0.362173 0
0.0493172 0.357412 0
0.106203 0.351125 0
0.169467 0.343297 0
0.239841 0.333852 0
0.315114 0.323415 0
0.395102 0.311635 0
0.476844 0.299855 0
0.560052 0.287953 0
0.646265 0.275669 0
0.733989 0.263401 0
0.820798 0.252003 0
0.905898 0.2421 0
0.984298 0.23386 0
1 0.227039 0
1 0.221897 0
1 0.218189 0
1 0.215854 0
1 0.213764 0
1 0.212192 0
1 0.212558 0
1 0.214817 0
1 0.218631 0
1 0.222934 0
1 0.227375 0
0 0.430716 0
0 0.427192 0
0 0.42388 0
0 0.420874 0
0 0.418158 0
0 0.416602 0
0 0.415793 0
0 0.415122 0
0 0.412253 0
0.0139315 0.407752 0
0.0703593 0.402609 0
0.132479 0.395697 0
0.20177 0.386999 0
0.276829 0.377325 0
0.35671 0.366094 0
0.439139 0.354681 0
0.522713 0.342657 0
0.609522 0.330053 0
0.698344 0.317418 0
0.787717 0.305943 0
0.874022 0.294835 0
0.953765 0.28574 0
1 0.279622 0
1 0.273472 0
1 0.269276 0
1 0.266163 0
1 0.263279 0
1 0.261448 0
1 0.261433 0
1 0.263859 0
1 0.267567 0
1 0.271916 0
1 0.2766 0
0 0.478447 0
0 0.475929 0
0 0.472786 0
0 0.469856 0
0 0.467613 0
0 0.467063 0
0 0.466957 0
0 0.466194 0
0 0.464042 0
0 0.460441 0
0.0352483 0.45565 0
0.0958724 0.449653 0
0.16434 0.442313 0
0.238407 0.433219 0
0.318288 0.422461 0
0.400626 0.41117 0
0.484474 0.399512 0
0.571969 0.387396 0
0.661906 0.374838 0
0.751812 0.362203 0
0.839673 0.3505 0
0.920378 0.340978 0
0.996201 0.334432 0
1 0.328374 0
1 0.323278 0
1 0.319509 0
1 0.316426 0
1 0.314092 0
1 0.314565 0
1 0.317433 0
1 0.321111 0
1 0.325444 0
1 0.330236 0
0 0.528359 0
0 0.526238 0
0 0.523598 0
0 0.521508 0
0 0.51986 0
0 0.519646 0
0 0.51986 0
0 0.519905 0
0 0.517983 0
0 0.514702 0
0.000396735 0.51075 0
0.0603494 0.506065 0
0.127184 0.498985 0
0.199908 0.490379 0
0.279194 0.48011 0
0.362173 0.469368 0
0.446738 0.458488 0
0.533654 0.44651 0
0.623652 0.4336 0
0.714214 0.420676 0
0.80322 0.408667 0
0.886015 0.398657 0
0.963043 0.391913 0
1 0.384695 0
1 0.37937 0
1 0.37557 0
1 0.372686 0
1 0.370443 0
1 0.371313 0
1 0.373968 0
1 0.377935 0
1 0.382498 0
1 0.387335 0
0 0.581079 0
0 0.5794 0
0 0.577218 0
0 0.575631 0
0 0.574563 0
0 0.574868 0
0 0.575296 0
0 0.575448 0
0 0.573816 0
0 0.571679 0
0 0.568383 0
0.0227817 0.563836 0
0.0880598 0.557565 0
0.160006 0.549538 0
0.238804 0.540169 0
0.321859 0.52958 0
0.406897 0.518227 0
0.493538 0.506508 0
0.583505 0.493919 0
0.674861 0.480934 0
0.765835 0.468528 0
0.850446 0.458396 0
0.928862 0.450462 0
1 0.443336 0
1 0.438209 0
1 0.434272 0
1 0.431754 0
1 0.429725 0
1 0.430228 0
1 0.433158 0
1 0.437064 0
1 0.441703 0
1 0.447059 0
0 0.636149 0
0 0.634821 0
0 0.633249 0
0 0.632273 0
0 0.631403 0
0 0.6318 0
0 0.632731 0
0 0.633356 0
0 0.632395 0
0 0.629984 0
0 0.6271 0
0 0.623041 0
0.0485237 0.617868 0
0.119158 0.610742 0
0.196429 0.601755 0
0.27892 0.591134 0
0.364813 0.579614 0
0.451896 0.56791 0
0.541726 0.555962 0
0.634409 0.543862 0
0.726299 0.531472 0
0.812619 0.52105 0
0.892424 0.511589 0
0.965301 0.504707 0
1 0.499641 0
1 0.496132 0
1 0.492912 0
1 0.4907 0
1 0.490867 0
1 0.493812 0
1 0.498177 0
1 0.503029 0
1 0.507622 0
0 0.69276 0
0 0.692576 0
0 0.691279 0
0 0.690105 0
0 0.689418 0
0 0.690166 0
0 0.691844 0
0 0.692638 0
0 0.691539 0
0 0.689296 0
0 0.686717 0
0 0.68365 0
0.0090486 0.678843 0
0.077409 0.672389 0
0.153262 0.663828 0
0.235813 0.653696 0
0.321645 0.642863 0
0.409018 0.631617 0
0.500221 0.620233 0
0.592645 0.608591 0
0.685924 0.59704 0
0.773465 0.58497 0
0.854734 0.57557 0
0.928725 0.568399 0
0.997284 0.563424 0
1 0.559213 0
1 0.555886 0
1 0.553521 0
1 0.553353 0
1 0.556481 0
1 0.560204 0
1 0.564355 0
1 0.56849 0
0 0.751354 0
0 0.75079 0
0 0.749828 0
0 0.749065 0
0 0.748745 0
0 0.749752 0
0 0.7514 0
0 0.752041 0
0 0.751156 0
0 0.749126 0
0 0.747189 0
0 0.744854 0
0 0.740658 0
0.0373999 0.734966 0
0.111925 0.72726 0
0.192844 0.717891 0
0.278798 0.707561 0
0.366995 0.696818 0
0.457404 0.685237 0
0.550393 0.673335 0
0.644099 0.661234 0
0.732998 0.65008 0
0.816159 0.640818 0
0.891814 0.633371 0
0.961074 0.627451 0
1 0.622751 0
1 0.619028 0
1 0.616449 0
1 0.616434 0
1 0.618616 0
1 0.621912 0
1 0.625666 0
1 0.629343 0
0 0.809293 0
0 0.808881 0
0 0.808209 0
0 0.807858 0
0 0.80798 0
0 0.808881 0
0 0.810147 0
0 0.810925 0
0 0.8103 0
0 0.80911 0
0 0.807889 0
0 0.805402 0
0 0.802106 0
0.00192264 0.797177 0
0.0743267 0.790509 0
0.154376 0.781964 0
0.239948 0.771954 0
0.328222 0.760952 0
0.418463 0.749523 0
0.511711 0.737285 0
0.6056 0.72491 0
0.695506 0.713893 0
0.779309 0.70428 0
0.855726 0.696391 0
0.925856 0.690394 0
0.991073 0.685191 0
1 0.680919 0
1 0.678172 0
1 0.677638 0
1 0.679164 0
1 0.681743 0
1 0.684688 0
1 0.688258 0
0 0.866407 0
0 0.866087 0
0 0.865965 0
0 0.865705 0
0 0.865675 0
0 0.866865 0
0 0.868498 0
0 0.869612 0
0 0.869566 0
0 0.868559 0
0 0.867109 0
0 0.865538 0
0 0.862715 0
0 0.858366 0
0.0429541 0.852476 0
0.121492 0.844297 0
0.20618 0.834394 0
0.294331 0.823392 0
0.383841 0.811963 0
0.476768 0.799817 0
0.570794 0.787457 0
0.661433 0.775494 0
0.745602 0.765332 0
0.822705 0.756924 0
0.8934 0.750057 0
0.958938 0.74464 0
1 0.740047 0
1 0.736507 0
1 0.735317 0
1 0.736202 0
1 0.738186 0
1 0.740902 0
1 0.743343 0
0 0.922759 0
0 0.922972 0
0 0.922866 0
0 0.922835 0
0 0.923171 0
0 0.924453 0
0 0.926177 0
0 0.928038 0
0 0.927779 0
0 0.926909 0
0 0.925536 0
0 0.924025 0
0 0.921569 0
0 0.91812 0
0.0157778 0.912306 0
0.0925765 0.904402 0
0.176593 0.894469 0
0.264515 0.883391 0
0.353918 0.87187 0
0.446204 0.859586 0
0.539559 0.846632 0
0.630671 0.83415 0
0.715557 0.823148 0
0.793133 0.814176 0
0.864317 0.806912 0
0.929915 0.800855 0
0.991089 0.795529 0
1 0.791455 0
1 0.789761 0
1 0.790051 0
1 0.791775 0
1 0.793439 0
1 0.795117 0
0 0.978668 0
0 0.978866 0
0 0.97908 0
0 0.979278 0
0 0.979828 0
0 0.981216 0
0 0.983444 0
0 0.984741 0
0 0.984665 0
0 0.98352 0
0 0.98204 0
0 0.980331 0
0 0.978347 0
0 0.974746 0
0 0.969299 0
0.0685283 0.961379 0
0.150698 0.951507 0
0.237919 0.940566 0
0.32697 0.928801 0
0.418036 0.915953 0
0.510903 0.902449 0
0.602029 0.889342 0
0.687602 0.877775 0
0.766201 0.867842 0
0.837522 0.859785 0
0.903197 0.852979 0
0.96405 0.847166 0
1 0.842573 0
1 0.840497 0
1 0.840604 0
1 0.84123 0
1 0.842313 0
1 0.843336 0
0 1 0
0 1 0
0 1 0
0 1 0
0 1 0
0 1 0
0 1 0
0 1 0
0 1 0
0 1 0
0 1 0
0 1 0
0 1 0
0 1 0
0 1 0
0.047013 1 0
0.128267 1 0
0.214389 0.994492 0
0.302464 0.982147 0
0.392432 0.96907 0
0.484565 0.955245 0
0.57554 0.941634 0
0.661585 0.929427 0
0.740505 0.918563 0
0.812711 0.909331 0
0.878553 0.901946 0
0.939223 0.895644 0
0.994369 0.890715 0
1 0.888151 0
1 0.887526 0
1 0.887465 0
1 0.887922 0
1 0.888365 0
0 1 0
0 1 0
0 1 0
0 1 0
0 1 0
0 1 0
0 1 0
0 1 0
0 1 0
0 1 0
0 1 0
0 1 0
0 1 0
0 1 0
0 1 0
0.0274968 1 0
0.106661 1 0
0.191699 1 0
0.279316 1 0
0.368475 1 0
0.46041 1 0
0.550958 0.990875 0
0.636713 0.977676 0
0.71635 0.96611 0
0.789166 0.956069 0
0.855711 0.947494 0
0.916396 0.94081 0
0.971252 0.935454 0
1 0.932158 0
1 0.930983 0
1 0.93048 0
1 0.930327 0
1 0.930114 0
0 1 0
0 1 0
0 1 0
0 1 0
0 1 0
0 1 0
0 1 0
0 1 0
0 1 0
