data/core/assets/color-luts/X5_I-Log_To_Rec.709_V1.0.cube
TITLE "X5 ILog to Rec709 3DLUT v1.0"
LUT_3D_SIZE 9
0 0 0
0.0493782 0.0031281 0
0.136629 0.00973526 0
0.29781 0.0177615 0
0.510079 0.0110475 0
0.774441 0 0
1 0 0
1 0 0
1 0 0
0 0.0416876 0
0.0367132 0.0372473 0
0.150881 0.0366064 0
0.322789 0.0248875 0
0.537591 0.0110018 0
0.810803 0 0
1 0 0
1 0 0
1 0 0
0 0.109911 0
0 0.108263 0
0.0979782 0.0993515 0
0.317678 0.0941787 0
0.570245 0.082063 0
0.852171 0.0662547 0
1 0.0507362 0
1 0.0391394 0
1 0.0610208 0
0 0.218952 0
0 0.229862 0
0.0178531 0.231647 0
0.211673 0.214572 0
0.500084 0.214328 0
0.86775 0.205707 0
1 0.18349 0
1 0.176364 0
1 0.185626 0
0 0.382605 0
0 0.402869 0
0 0.409964 0
0.110613 0.395163 0
0.361975 0.367132 0
0.71693 0.361395 0
1 0.360082 0
1 0.360281 0
1 0.36614 0
0 0.585733 0
0 0.608698 0
0 0.615839 0
0 0.602884 0
0.243702 0.580774 0
0.542962 0.550301 0
0.88014 0.545815 0
1 0.563226 0
1 0.578058 0
0 0.787869 0
0 0.814755 0
0 0.828611 0
0 0.824628 0
0.142336 0.80827 0
0.438941 0.779339 0
0.740505 0.748989 0
1 0.745418 0
1 0.76231 0
0 0.999283 0
0 1 0
0 1 0
0 1 0
0.074403 1 0
0.36582 0.991669 0
0.662547 0.957015 0
0.92137 0.931182 0
1 0.923247 0
0 1 0
0 1 0
0 1 0
0 1 0
0.0112612 1 0
0.299825 1 0
0.59086 1 0
0.845808 1 0
1 1 0
0 0.00424201 0.0586404
0.0236973 0 0.0697795
0.132799 0 0.0527657
0.301854 0.00741588 0
0.512169 0.00587472 0
0.777905 0 0
1 0 0
1 0 0
1 0 0
0 0.0395056 0.0390936
0.0348974 0.0354925 0.0349737
0.13193 0.0266117 0.0160067
0.30602 0.0179904 0
0.530266 0.00737011 0
0.810056 0 0
1 0 0
1 0 0
1 0 0
0 0.108476 0
0 0.107744 0
0.0983139 0.0999924 0
0.317525 0.0922866 0
0.550179 0.0782788 0
0.836713 0.0608072 0
1 0.0346532 0
1 0.0451972 0
1 0.068864 0
0 0.222293 0
0 0.232868 0
0.0196078 0.235904 0
0.21593 0.218952 0
0.509834 0.220142 0
0.873335 0.204074 0
1 0.178698 0
1 0.176425 0
1 0.187716 0
0 0.389212 0
0 0.408118 0
0 0.415213 0
0.114 0.399847 0
0.3673 0.372717 0
0.725093 0.367971 0
1 0.365637 0
1 0.364843 0
1 0.369848 0
0 0.593423 0
0 0.617075 0
0 0.622751 0
0.00265507 0.609583 0
0.251759 0.588266 0
0.551003 0.557839 0
0.889555 0.555749 0
1 0.572122 0
1 0.586084 0
0 0.795895 0
0 0.824414 0
0 0.838163 0
0 0.833555 0
0.151324 0.816861 0
0.447623 0.787503 0
0.748867 0.75729 0
1 0.754086 0
1 0.77113 0
0 1 0
0 1 0
0 1 0
0 1 0
0.0826276 1 0
0.373648 0.998581 0
0.66923 0.963272 0
0.92755 0.937224 0
1 0.929473 0
0 1 0
0 1 0
0 1 0
0 1 0
0.0197452 1 0
0.306203 1 0
0.595712 1 0
0.850629 1 0
1 1 0
0 0.0083772 0.160861
0.0142672 0 0.157412
0.057435 0 0.180972
0.245182 0 0.1579
0.499306 0 0.0681468
0.793194 0 0
1 0 0
1 0 0
1 0 0
0 0.0384833 0.141405
0.0178683 0.0355688 0.138293
0.0731212 0.0279088 0.151583
0.284932 0 0.11223
0.533455 0 0.0285039
0.818555 0 0
1 0 0
1 0 0
1 0.000137331 0
0 0.105028 0.103822
0 0.104311 0.103059
0.094728 0.096376 0.0949264
0.281483 0.076173 0.0517891
0.516899 0.0679942 0.00831617
0.81117 0.0479896 0
1 0.0428168 0
1 0.0578012 0
1 0.0784924 0
0 0.220859 0.016434
0 0.2327 0.0192111
0.0179141 0.2365 0.0179904
0.217426 0.220111 0
0.513283 0.215518 0
0.849317 0.187457 0
1 0.168887 0
1 0.171191 0
1 0.186221 0
0 0.38996 0
0 0.410254 0
0 0.41767 0
0.115145 0.401877 0
0.369421 0.374807 0
0.729961 0.372168 0
1 0.365103 0
1 0.362051 0
1 0.364599 0
0 0.595102 0
0 0.618326 0
0 0.624109 0
0.00553903 0.611978 0
0.256657 0.592615 0
0.555749 0.562325 0
0.896574 0.562844 0
1 0.57792 0
1 0.588479 0
0 0.799435 0
0 0.828 0
0 0.842237 0
0 0.837324 0
0.156878 0.821378 0
0.452979 0.792187 0
0.753567 0.761685 0
1 0.759625 0
1 0.776577 0
0 1 0
0 1 0
0 1 0
0 1 0
0.0874495 1 0
0.377981 1 0
0.671733 0.965805 0
0.929808 0.939193 0
1 0.932433 0
0 1 0
0 1 0
0 1 0
0 1 0
0.0231632 1 0
0.308766 1 0
0.597711 1 0
0.85243 1 0
1 1 0
0 0.00485237 0.352743
0 0 0.344869
0.0457771 0 0.325368
0.113024 0 0.375113
0.353094 0 0.347845
0.68867 0 0.230426
1 0 0.0320745
1 0 0
1 0 0
0 0.042237 0.3337
0 0.042298 0.330602
0.0551003 0.00657664 0.329549
0.137667 0.00523384 0.363119
0.395056 0 0.341497
0.743648 0 0.227253
1 0 0.0366217
1 0 0
1 0 0
0 0.097322 0.296681
0 0.0992447 0.299184
0.0543526 0.0949111 0.295583
0.16701 0.0790723 0.318929
0.45713 0.000457771 0.272969
0.798611 0 0.160067
1 0 0.00180056
1 0 0
1 0.0392157 0
0 0.213901 0.211612
0 0.225666 0.223194
0 0.230808 0.227802
0.208804 0.212665 0.209262
0.446006 0.196445 0.163851
0.765423 0.164553 0.0834058
1 0.161151 0.00561532
1 0.167559 0
1 0.183246 0
0 0.384222 0.108629
0 0.40383 0.122713
0 0.410788 0.125826
0.104524 0.394202 0.104036
0.361501 0.36553 0.0641489
0.72549 0.366934 0.00924697
1 0.349767 0
1 0.341314 0
1 0.342748 0
0 0.589441 0
0 0.612085 0
0 0.618112 0.00427253
0.00457771 0.607187 0.0033875
0.254688 0.588525 0
0.553445 0.558846 0
0.900465 0.563943 0
1 0.572869 0
1 0.577035 0
0 0.795712 0
0 0.824964 0
0 0.839017 0
0 0.834379 0
0.155245 0.818265 0
0.450248 0.788556 0
0.749966 0.757259 0
1 0.758892 0
1 0.775631 0
0 1 0
0 1 0
0 1 0
0 1 0
0.0842603 1 0
0.373724 0.996353 0
0.666865 0.960327 0
0.924529 0.933272 0
1 0.928496 0
0 1 0
0 1 0
0 1 0
0 1 0
0.016495 1 0
0.303105 1 0
0.591836 1 0
0.846036 1 0
1 1 0
0 0.00564584 0.588556
0 0.00604257 0.578393
0.00383001 0 0.565988
0.0811017 0 0.543526
0.185977 0 0.624903
0.464698 0 0.604059
0.827939 0 0.498161
1 0 0.370275
1 0 0.21883
0 0.0455482 0.572366
0 0.053193 0.572244
0.0120851 0.0291447 0.563439
0.113909 0.00482185 0.546059
0.219928 0 0.632471
0.524193 0 0.615778
0.902342 0 0.516167
1 0 0.403418
1 0 0.280018
0 0.100206 0.538094
0 0.108034 0.544289
0 0.106737 0.541772
0.155184 0.0612039 0.532631
0.260716 0.0623178 0.601205
0.603357 0 0.576989
0.995377 0 0.475196
1 0 0.368185
1 0 0.258137
0 0.203403 0.46215
0 0.219196 0.477134
0 0.228458 0.483543
0.162234 0.203616 0.478676
0.307164 0.189425 0.509667
0.688807 0.0817731 0.441444
1 0.0450141 0.329046
1 0.0178073 0.227543
1 0.0211795 0.135119
0 0.374426 0.370504
0 0.393561 0.389029
0 0.400778 0.395682
0.0526741 0.386847 0.381155
0.351995 0.358694 0.352789
0.621393 0.352178 0.310567
0.953399 0.308248 0.224537
1 0.304768 0.182696
1 0.312367 0.147219
0 0.578271 0.230198
0 0.601114 0.254246
0 0.608255 0.268055
0 0.599039 0.263005
0.239948 0.580179 0.238788
0.541176 0.546319 0.182101
0.901915 0.553216 0.131334
1 0.552682 0.0826123
1 0.547936 0.0269932
0 0.78703 0.119524
0 0.816861 0.148074
0 0.831388 0.164065
0 0.826703 0.161837
0.141573 0.809293 0.139712
0.435798 0.779049 0.10277
0.739574 0.745602 0.0551308
1 0.754955 0
1 0.769192 0
0 1 0.0518502
0 1 0.0820172
0 1 0.0973831
0 1 0.0919356
0.0731518 1 0.0691997
0.362463 0.985916 0.0354467
0.657862 0.950378 0.00108339
0.915221 0.92285 0
1 0.920775 0
0 1 0.00117494
0 1 0.0294499
0 1 0.0407416
0 1 0.0294652
0.00959792 1 0.00454719
0.293034 1 0
0.581781 1 0
0.835645 1 0
1 1 0
0 0.034165 0.879271
0 0.0334936 0.872038
0 0.0124971 0.852934
0.0470588 0 0.83061
0.12549 0 0.822904
0.276356 0 0.924819
0.561059 0 0.911391
0.878676 0 0.843915
1 0 0.756909
0 0.0691691 0.871641
0 0.0755932 0.873655
0 0.0577249 0.865171
0.0875715 0 0.853391
0.166079 0 0.844831
0.322423 0 0.961486
0.626688 0 0.960235
0.962173 0 0.90898
1 0 0.84152
0 0.123232 0.838758
0 0.133547 0.848081
0 0.130602 0.849012
0.133898 0.0897841 0.838911
0.228336 0.0761883 0.832486
0.378485 0.0415351 0.954925
0.711406 0 0.958389
1 0 0.911254
1 0 0.844053
0 0.208026 0.770718
0 0.226535 0.790509
0 0.238209 0.799313
0.0691081 0.217182 0.79324
0.297124 0.172335 0.789441
0.42707 0.166033 0.875669
0.78938 0.0191653 0.855024
1 0 0.776196
1 0 0.697429
0 0.364614 0.691707
0 0.385107 0.716503
0 0.394247 0.723308
0 0.378851 0.709499
0.298772 0.339574 0.699001
0.473564 0.330663 0.717769
0.851225 0.223819 0.653864
1 0.200214 0.573022
1 0.189807 0.507713
0 0.564416 0.558358
0 0.587701 0.581231
0 0.596201 0.589395
0 0.589548 0.582284
0.176608 0.573983 0.566079
0.530144 0.539178 0.531212
0.792889 0.532769 0.493492
1 0.53051 0.456886
1 0.508858 0.403998
0 0.774731 0.431632
0 0.804974 0.463752
0 0.819394 0.479957
0 0.81532 0.476509
0.114305 0.79881 0.459312
0.420645 0.76759 0.418814
0.725643 0.730022 0.350454
1 0.736584 0.31223
1 0.739666 0.280812
0 0.992752 0.364096
0 1 0.396368
0 1 0.411307
0 1 0.404471
0.0550088 1 0.381598
0.338186 0.970825 0.336065
0.628275 0.932769 0.279805
0.891661 0.899794 0.228519
1 0.899229 0.177447
0 1 0.31371
0 1 0.339544
0 1 0.350225
0 1 0.337865
0.00187686 1 0.313726
0.265736 1 0.262959
0.553994 1 0.216281
0.807523 1 0.170092
1 1 0.131319
0 0.0822614 1
0 0.0770275 1
0 0.0558022 1
0.0261387 0.0144656 1
0.0915847 0 1
0.189639 0 1
0.373953 0 1
0.608804 0 1
0.890745 0 1
0 0.112413 1
0 0.11194 1
0 0.0962081 1
0.0403906 0.0551614 1
0.132692 0 1
0.242161 0 1
0.435981 0 1
0.687633 0 1
0.993561 0 1
0 0.160159 1
0 0.168917 1
0 0.162341 1
0.0143435 0.136019 1
0.193378 0 1
0.31043 0.0868696 1
0.50605 0.0251316 1
0.778881 0 1
1 0 1
0 0.229862 1
0 0.249607 1
0 0.256916 1
0 0.237537 1
0.268055 0.155978 1
0.381674 0.19617 1
0.554299 0.150713 1
0.837476 0.0145724 1
1 0 1
0 0.367788 1
0 0.389776 1
0 0.399756 1
0 0.384817 1
0.218036 0.356085 1
0.467933 0.331365 0.982132
0.595315 0.317327 1
0.891112 0.19736 1
1 0.146334 1
0 0.555261 0.891112
0 0.579797 0.90631
0 0.588907 0.909255
0 0.582345 0.900908
0.106844 0.565103 0.886503
0.485832 0.524834 0.867094
0.657679 0.516426 0.89398
0.967285 0.442298 0.862287
1 0.412421 0.785443
0 0.764446 0.756649
0 0.795193 0.786831
0 0.810513 0.801602
0 0.806989 0.797513
0 0.791516 0.781491
0.347463 0.763592 0.752834
0.710781 0.722774 0.7122
0.933288 0.719005 0.68426
1 0.72047 0.655573
0 0.98114 0.685069
0 1 0.715419
0 1 0.72903
0 1 0.721538
0.000488289 0.994904 0.700816
0.304662 0.959533 0.663203
0.618082 0.920394 0.615564
0.885756 0.886015 0.551095
1 0.895903 0.527214
0 1 0.633738
0 1 0.657923
0 1 0.66688
0 1 0.654017
0 1 0.62826
0.241856 1 0.583917
0.53547 1 0.53286
0.788388 1 0.479881
1 1 0.427497
0 0.121263 1
0 0.116228 1
0 0.0995499 1
0 0.0647288 1
0.11928 0 1
0.156954 0 1
0.283909 0 1
0.467384 0 1
0.667842 0 1
0 0.148241 1
0 0.147158 1
0 0.133806 1
0 0.101839 1
0.160784 0 1
0.21474 0 1
0.350912 0 1
0.548531 0 1
0.762005 0 1
0 0.195468 1
0 0.199359 1
0 0.193622 1
0 0.16672 1
0.219852 0.0364233 1
0.297169 0.0154269 1
0.42385 0.0933852 1
0.629969 0.0162661 1
0.854978 0 1
0 0.259434 1
0 0.27718 1
0 0.279377 1
0 0.262135 1
0.231312 0.223453 1
0.375631 0.11754 1
0.48278 0.213611 1
0.669932 0.15172 1
0.895811 0.0189059 1
0 0.383124 1
0 0.405524 1
0 0.413123 1
0 0.398291 1
0.133089 0.370214 1
0.446036 0.271061 1
0.55285 0.366064 1
0.711879 0.318593 1
0.958694 0.203784 1
0 0.556146 1
0 0.581521 1
0 0.592157 1
0 0.585687 1
0.00469978 0.567712 1
0.432914 0.517693 1
0.65127 0.521935 1
0.767376 0.505257 1
1 0.413077 1
0 0.760021 1
0 0.790555 1
0 0.805768 1
0 0.801617 1
0 0.785046 1
0.321279 0.750057 1
0.673716 0.717815 0.994202
0.826658 0.705135 1
1 0.63827 0.997223
0 0.975875 0.965789
0 1 0.994583
0 1 1
0 1 0.998291
0 0.988876 0.976715
0.208484 0.955444 0.942779
0.540215 0.921233 0.907866
0.8663 0.880842 0.868009
1 0.877302 0.844022
0 1 0.909514
0 1 0.932601
0 1 0.939803
0 1 0.926192
0 1 0.89987
0.183246 1 0.861509
0.503075 1 0.819501
0.7823 1 0.779232
1 1 0.718685
0 0.155978 1
0 0.152316 1
0 0.138613 1
0 0.110369 1
0.149798 0.0179446 1
0.1084 0 1
0.239628 0 1
0.381491 0 1
0.563424 0 1
0 0.18114 1
0 0.18085 1
0 0.169467 1
0 0.142687 1
0.186664 0.0604715 1
0.170748 0 1
0.313695 0 1
0.466697 0 1
0.66125 0 1
0 0.222461 1
0 0.228321 1
0 0.223423 1
0 0.199649 1
0.216007 0.15874 1
0.254826 0 1
0.398383 0.0640726 1
0.545464 0.0971389 1
0.745876 0.0176699 1
0 0.289326 1
0 0.302342 1
0 0.304219 1
0 0.288334 1
0.134493 0.253773 1
0.338949 0.0247807 1
0.476905 0.184939 1
0.591058 0.225147 1
0.770825 0.157244 1
0 0.405203 1
0 0.425116 1
0 0.429603 1
0 0.415045 1
0.0168002 0.387732 1
0.433433 0.291402 1
0.573312 0.33846 1
0.649958 0.380468 1
0.822965 0.326131 1
0 0.565332 1
0 0.590127 1
0 0.600885 1
0 0.594369 1
0 0.576242 1
0.377005 0.533745 1
0.656809 0.480995 1
0.729671 0.551019 1
0.873503 0.506752 1
0 0.762539 1
0 0.79266 1
0 0.807813 1
0 0.803037 1
0 0.785153 1
0.259388 0.751232 1
0.638483 0.696544 1
0.82681 0.710307 1
0.922469 0.691951 1
0 0.972076 1
0 1 1
0 1 1
0 1 1
0 0.982238 1
0.165606 0.944869 1
0.534478 0.904189 1
0.83003 0.87686 1
0.971679 0.86244 1
0 1 1
0 1 1
0 1 1
0 1 1
0 1 1
0.0299535 1 1
0.420432 1 1
0.699214 1 1
1 1 1
