data/core/assets/color-luts/X5_I-Log_To_Rec.709_V1.0.cube
TITLE "X5 ILog to Rec709 3DLUT v1.0"
LUT_3D_SIZE 5
0 0 0
0.136629 0.00973526 0
0.510079 0.0110475 0
1 0 0
1 0 0
0 0.109911 0
0.0979782 0.0993515 0
0.570245 0.082063 0
1 0.0507362 0
1 0.0610208 0
0 0.382605 0
0 0.409964 0
0.361975 0.367132 0
1 0.360082 0
1 0.36614 0
0 0.787869 0
0 0.828611 0
0.142336 0.80827 0
0.740505 0.748989 0
1 0.76231 0
0 1 0
0 1 0
0.0112612 1 0
0.59086 1 0
1 1 0
0 0.0083772 0.160861
0.057435 0 0.180972
0.499306 0 0.0681468
1 0 0
1 0 0
0 0.105028 0.103822
0.094728 0.096376 0.0949264
0.516899 0.0679942 0.00831617
1 0.0428168 0
1 0.0784924 0
0 0.38996 0
0 0.41767 0
0.369421 0.374807 0
1 0.365103 0
1 0.364599 0
0 0.799435 0
0 0.842237 0
0.156878 0.821378 0
0.753567 0.761685 0
1 0.776577 0
0 1 0
0 1 0
0.0231632 1 0
0.597711 1 0
1 1 0
0 0.00564584 0.588556
0.00383001 0 0.565988
0.185977 0 0.624903
0.827939 0 0.498161
1 0 0.21883
0 0.100206 0.538094
0 0.106737 0.541772
0.260716 0.0623178 0.601205
0.995377 0 0.475196
1 0 0.258137
0 0.374426 0.370504
0 0.400778 0.395682
0.351995 0.358694 0.352789
0.953399 0.308248 0.224537
1 0.312367 0.147219
0 0.78703 0.119524
0 0.831388 0.164065
0.141573 0.809293 0.139712
0.739574 0.745602 0.0551308
1 0.769192 0
0 1 0.00117494
0 1 0.0407416
0.00959792 1 0.00454719
0.581781 1 0
1 1 0
0 0.0822614 1
0 0.0558022 1
0.0915847 0 1
0.373953 0 1
0.890745 0 1
0 0.160159 1
0 0.162341 1
0.193378 0 1
0.50605 0.0251316 1
1 0 1
0 0.367788 1
0 0.399756 1
0.218036 0.356085 1
0.595315 0.317327 1
1 0.146334 1
0 0.764446 0.756649
0 0.810513 0.801602
0 0.791516 0.781491
0.710781 0.722774 0.7122
1 0.72047 0.655573
0 1 0.633738
0 1 0.66688
0 1 0.62826
0.53547 1 0.53286
1 1 0.427497
0 0.155978 1
0 0.138613 1
0.149798 0.0179446 1
0.239628 0 1
0.563424 0 1
0 0.222461 1
0 0.223423 1
0.216007 0.15874 1
0.398383 0.0640726 1
0.745876 0.0176699 1
0 0.405203 1
0 0.429603 1
0.0168002 0.387732 1
0.573312 0.33846 1
0.822965 0.326131 1
0 0.762539 1
0 0.807813 1
0 0.785153 1
0.638483 0.696544 1
0.922469 0.691951 1
0 1 1
0 1 1
0 1 1
0.420432 1 1
1 1 1
