data/core/assets/color-luts/X5_I-Log_To_Rec.709_V1.0.cube
TITLE "X5 ILog to Rec709 3DLUT v1.0"
LUT_3D_SIZE 65
0 0 0
0.00605783 0 0
0.0107881 0.000671397 0
0.0158999 0.00122072 0
0.0211643 0.00166323 0
0.0268101 0.00204471 0
0.0329595 0.0024567 0
0.0404212 0.00276188 0
0.0493782 0.0031281 0
0.0587778 0.00350958 0
0.0684215 0.00410468 0
0.0784619 0.00486763 0
0.0886854 0.00581369 0
0.099321 0.00660716 0
0.110735 0.00759899 0
0.123323 0.00869764 0
0.136629 0.00973526 0
0.151308 0.0108797 0
0.167956 0.0120546 0
0.185412 0.0131838 0
0.205249 0.0142977 0
0.226352 0.0153506 0
0.248966 0.0163577 0
0.273152 0.0172122 0
0.29781 0.0177615 0
0.323491 0.0180514 0
0.349264 0.0179904 0
0.37496 0.0176089 0
0.401144 0.0168765 0
0.427619 0.01561 0
0.454627 0.0143435 0
0.482048 0.0128176 0
0.510079 0.0110475 0
0.539193 0.0089723 0
0.569451 0.00660716 0
0.601389 0.0039826 0
0.63444 0.00132753 0
0.668894 0 0
0.703716 0 0
0.738735 0 0
0.774441 0 0
0.809842 0 0
0.845518 0 0
0.880522 0 0
0.915602 0 0
0.950484 0 0
0.984863 0 0
1 0 0
1 0 0
1 0 0
1 0 0
1 0 0
1 0 0
1 0 0
1 0 0
1 0 0
1 0 0
1 0 0
1 0 0
1 0 0
1 0 0
1 0 0
1 0 0
1 0 0
1 0 0
0 0.00488289 0
0.00419623 0.00425727 0
0.0117037 0.00422675 0
0.018265 0.00418097 0
0.0243381 0.00410468 0
0.0303044 0.00401312 0
0.0364385 0.00401312 0
0.0431525 0.00411994 0
0.0507515 0.00479133 0
0.0591592 0.00553903 0
0.0681621 0.00624094 0
0.07776 0.00704967 0
0.0878614 0.00802625 0
0.0984665 0.00895705 0
0.10988 0.00994888 0
0.122408 0.0109407 0
0.135821 0.0119936 0
0.150515 0.0129854 0
0.167224 0.0140841 0
0.185 0.015198 0
0.20499 0.0162661 0
0.22652 0.0172427 0
0.249348 0.0180972 0
0.27335 0.018677 0
0.298268 0.0190738 0
0.323812 0.0191806 0
0.350195 0.0189822 0
0.376394 0.0184176 0
0.40322 0.017258 0
0.429709 0.0160525 0
0.456977 0.0146029 0
0.48484 0.0128786 0
0.513252 0.0109102 0
0.542443 0.0087129 0
0.573297 0.0061799 0
0.605463 0.00347906 0
0.639246 0.000823987 0
0.673426 0 0
0.708263 0 0
0.743709 0 0
0.779538 0 0
0.815061 0 0
0.850187 0 0
0.885863 0 0
0.92108 0 0
0.955444 0 0
0.990127 0 0
1 0 0
1 0 0
1 0 0
1 0 0
1 0 0
1 0 0
1 0 0
1 0 0
1 0 0
1 0 0
1 0 0
1 0 0
1 0 0
1 0 0
1 0 0
1 0 0
1 0 0
1 0 0
0 0.00972 0
0.0019379 0.00909438 0
0.00830091 0.00840772 0
0.0149996 0.00849927 0
0.0225071 0.00869764 0
0.0301823 0.00848402 0
0.0378729 0.00807202 0
0.0463417 0.00741588 0
0.0551919 0.00698863 0
0.0637522 0.0069276 0
0.0717174 0.00720226 0
0.0803388 0.00817884 0
0.0895705 0.00936904 0
0.0996719 0.0104677 0
0.110689 0.0115358 0
0.123018 0.0126192 0
0.136202 0.0137026 0
0.151141 0.014786 0
0.167742 0.0158694 0
0.185626 0.0168765 0
0.20557 0.0178225 0
0.226978 0.0187076 0
0.250202 0.01944 0
0.274861 0.0199741 0
0.30013 0.0202182 0
0.326177 0.0201572 0
0.352667 0.0197299 0
0.379049 0.0189517 0
0.406043 0.0175784 0
0.432807 0.0162203 0
0.460273 0.0145876 0
0.488121 0.0127413 0
0.516899 0.010605 0
0.546471 0.00823987 0
0.577585 0.00564584 0
0.609918 0.00294499 0
0.643702 0.000442512 0
0.678187 0 0
0.713512 0 0
0.748714 0 0
0.784451 0 0
0.819821 0 0
0.85568 0 0
0.891112 0 0
0.926238 0 0
0.961349 0 0
0.995865 0 0
1 0 0
1 0 0
1 0 0
1 0 0
1 0 0
1 0 0
1 0 0
1 0 0
1 0 0
1 0 0
1 0 0
1 0 0
1 0 0
1 0 0
1 0 0
1 0 0
1 0 0
1 0 0
0 0.0143587 0
0.000183108 0.0137331 0
0.00646983 0.0129854 0
0.0121309 0.0122988 0
0.0187991 0.0121462 0
0.0270542 0.0123293 0
0.0357214 0.0121614 0
0.045716 0.0116579 0
0.0561379 0.0111543 0
0.0661021 0.0105745 0
0.0755474 0.0102388 0
0.0848859 0.0102846 0
0.0944228 0.0106813 0
0.103685 0.0112306 0
0.114153 0.0122988 0
0.125902 0.01355 0
0.138308 0.014725 0
0.153094 0.0158846 0
0.169284 0.0169985 0
0.187503 0.0180667 0
0.20795 0.0190585 0
0.229435 0.0198825 0
0.252918 0.0205081 0
0.277928 0.0209049 0
0.303731 0.0209812 0
0.329992 0.0207065 0
0.35613 0.0201114 0
0.382681 0.0191348 0
0.409491 0.0176089 0
0.436622 0.0160678 0
0.46424 0.014313 0
0.491951 0.0123445 0
0.52105 0.010071 0
0.550759 0.00764477 0
0.582422 0.00503548 0
0.615015 0.00244144 0
0.649195 0.000106813 0
0.68397 0 0
0.718456 0 0
0.754055 0 0
0.790143 0 0
0.825864 0 0
0.861418 0 0
0.897002 0 0
0.932555 0 0
0.96698 0 0
1 0 0
1 0 0
1 0 0
1 0 0
1 0 0
1 0 0
1 0 0
1 0 0
1 0 0
1 0 0
1 0 0
1 0 0
1 0 0
1 0 0
1 0 0
1 0 0
1 0 0
1 0 0
1 0 0
0 0.0188754 0
0 0.0181125 0
0.00418097 0.0174258 0
0.00994888 0.0168154 0
0.0159915 0.0162203 0
0.02327 0.0159457 0
0.0321965 0.0161593 0
0.0431373 0.0158694 0
0.05449 0.0153964 0
0.0658427 0.0149233 0
0.0767987 0.0145266 0
0.0874342 0.0142977 0
0.0978408 0.0141604 0
0.107973 0.0140688 0
0.119127 0.0143282 0
0.130724 0.0146639 0
0.142748 0.0152743 0
0.157305 0.0163882 0
0.173205 0.0175631 0
0.191058 0.0187076 0
0.211795 0.0196994 0
0.233661 0.0204776 0
0.257221 0.0210269 0
0.281758 0.0213626 0
0.307454 0.0213016 0
0.333471 0.0209049 0
0.35993 0.0201267 0
0.386191 0.019028 0
0.413275 0.0173648 0
0.440528 0.0156863 0
0.468147 0.0138399 0
0.496422 0.0117494 0
0.525612 0.00949111 0
0.555825 0.00706493 0
0.587716 0.00453193 0
0.620523 0.00204471 0
0.654536 0 0
0.689158 0 0
0.724468 0 0
0.759945 0 0
0.795789 0 0
0.831769 0 0
0.867353 0 0
0.902831 0 0
0.938216 0 0
0.973556 0 0
1 0 0
1 0 0
1 0 0
1 0 0
1 0 0
1 0 0
1 0 0
1 0 0
1 0 0
1 0 0
1 0 0
1 0 0
1 0 0
1 0 0
1 0 0
1 0 0
1 0 0
1 0 0
1 0 0
0 0.0236973 0
0 0.0229343 0
0.00149538 0.0222629 0
0.00737011 0.0217288 0
0.0134279 0.021088 0
0.0201572 0.0204471 0
0.0280919 0.0202029 0
0.0391241 0.0202792 0
0.0512245 0.0202335 0
0.0633707 0.0198367 0
0.0751659 0.0193179 0
0.0871595 0.0190738 0
0.0987106 0.0188907 0
0.110399 0.0187381 0
0.12256 0.0185397 0
0.134966 0.0184329 0
0.14847 0.0184787 0
0.163134 0.0185397 0
0.178866 0.0185397 0
0.196155 0.0191653 0
0.215946 0.0200046 0
0.237415 0.0207828 0
0.261082 0.0212558 0
0.285924 0.0214389 0
0.311421 0.0213016 0
0.337591 0.0207675 0
0.363729 0.0199283 0
0.390234 0.0184939 0
0.417029 0.0170291 0
0.444038 0.0153506 0
0.471992 0.0134432 0
0.500084 0.011429 0
0.52961 0.00917067 0
0.559976 0.00680552 0
0.591959 0.00436408 0
0.62501 0.00198367 0
0.659281 0 0
0.694224 0 0
0.728862 0 0
0.764477 0 0
0.800916 0 0
0.836576 0 0
0.872267 0 0
0.908171 0 0
0.94406 0 0
0.979202 0 0
1 0 0
1 0 0
1 0 0
1 0 0
1 0 0
1 0 0
1 0 0
1 0 0
1 0 0
1 0 0
1 0 0
1 0 0
1 0 0
1 0 0
1 0 0
1 0 0
1 0 0
1 0 0
1 0 0
0 0.0288548 0
0 0.0280461 0
0 0.0275273 0
0.00459297 0.0271153 0
0.0108034 0.026627 0
0.0176699 0.0260319 0
0.0248264 0.0251774 0
0.0346227 0.0246128 0
0.0463569 0.0247044 0
0.0593729 0.0248417 0
0.0722362 0.0248264 0
0.0849928 0.0247196 0
0.0973831 0.0245518 0
0.110567 0.0243687 0
0.1243 0.0241703 0
0.137865 0.0238651 0
0.152071 0.0233005 0
0.167636 0.0228885 0
0.184176 0.0224613 0
0.202487 0.0220493 0
0.221561 0.0213169 0
0.242359 0.0214847 0
0.26537 0.0216983 0
0.289876 0.0217441 0
0.315236 0.0214389 0
0.341192 0.0207675 0
0.367407 0.0198215 0
0.393942 0.0183108 0
0.420508 0.016846 0
0.447822 0.0151217 0
0.475273 0.0132906 0
0.5037 0.0113069 0
0.533379 0.00910964 0
0.564019 0.00682078 0
0.596262 0.00450141 0
0.62916 0.00221256 0
0.663508 0.000183108 0
0.698009 0 0
0.733349 0 0
0.769177 0 0
0.805188 0 0
0.841398 0 0
0.877302 0 0
0.91313 0 0
0.949203 0 0
0.984558 0 0
1 0 0
1 0 0
1 0 0
1 0 0
1 0 0
1 0 0
1 0 0
1 0 0
1 0 0
1 0 0
1 0 0
1 0 0
1 0 0
1 0 0
1 0 0
1 0 0
1 0 0
1 0 0
1 0 0
0 0.0351568 0
0 0.0343481 0
0 0.0339208 0
0.000335698 0.0332189 0
0.00656138 0.0328527 0
0.0135195 0.0322728 0
0.0211185 0.0317082 0
0.0303502 0.0307774 0
0.0409705 0.0302586 0
0.0534371 0.0304723 0
0.0666514 0.030808 0
0.080354 0.0310826 0
0.0935988 0.0311284 0
0.107546 0.0308843 0
0.122286 0.0306249 0
0.137163 0.0302739 0
0.153201 0.0297704 0
0.169802 0.0289311 0
0.187304 0.0281682 0
0.206668 0.0272374 0
0.226764 0.0261692 0
0.248066 0.0250858 0
0.270054 0.0235904 0
0.293797 0.0229953 0
0.318288 0.0224308 0
0.343801 0.0216526 0
0.369497 0.0205844 0
0.396063 0.0189059 0
0.422583 0.01738 0
0.449638 0.0156863 0
0.477592 0.0138399 0
0.506172 0.011841 0
0.535409 0.00978103 0
0.566461 0.0075227 0
0.598718 0.00520333 0
0.631983 0.00294499 0
0.666316 0.000885023 0
0.70103 0 0
0.736629 0 0
0.771603 0 0
0.808255 0 0
0.844343 0 0
0.880278 0 0
0.916503 0 0
0.952377 0 0
0.988266 0 0
1 0 0
1 0 0
1 0 0
1 0 0
1 0 0
1 0 0
1 0 0
1 0 0
1 0 0
1 0 0
1 0 0
1 0 0
1 0 0
1 0 0
1 0 0
1 0 0
1 0 0
1 0 0
1 0 0
0 0.0416876 0
0 0.0410468 0
0 0.0405432 0
0 0.0402228 0
0.00241093 0.0399481 0
0.00952163 0.0394903 0
0.0172885 0.0390631 0
0.0267338 0.0381781 0
0.0367132 0.0372473 0
0.0476387 0.0364996 0
0.0603342 0.0367285 0
0.0741131 0.0370794 0
0.0881056 0.0374609 0
0.102831 0.0374762 0
0.118196 0.0373236 0
0.133928 0.0371252 0
0.150881 0.0366064 0
0.169192 0.0358434 0
0.188266 0.0349737 0
0.208789 0.0336767 0
0.23006 0.0323186 0
0.25182 0.0306859 0
0.275074 0.029099 0
0.298939 0.0272831 0
0.322789 0.0248875 0
0.347509 0.0234989 0
0.372625 0.0221714 0
0.398413 0.0204776 0
0.424414 0.0188754 0
0.451606 0.0170596 0
0.479576 0.0151064 0
0.507973 0.0131075 0
0.537591 0.0110018 0
0.568566 0.0087892 0
0.600702 0.00657664 0
0.63415 0.00433356 0
0.668559 0.00222782 0
0.7037 0.000457771 0
0.738842 0 0
0.774289 0 0
0.810803 0 0
0.846922 0 0
0.883268 0 0
0.919463 0 0
0.955642 0 0
0.991257 0 0
1 0 0
1 0 0
1 0 0
1 0 0
1 0 0
1 0 0
1 0 0
1 0 0
1 0 0
1 0 0
1 0 0
1 0 0
1 0 0
1 0 0
1 0 0
1 0 0
1 0 0
1 0 0
1 0 0
0 0.0489509 0
0 0.0485389 0
0 0.0478828 0
0 0.0476997 0
0 0.0476539 0
0.00567636 0.0473487 0
0.0132601 0.0467536 0
0.0228275 0.0459144 0
0.0328222 0.0448615 0
0.0432441 0.0438697 0
0.0544137 0.0430915 0
0.0675059 0.0432136 0
0.0814069 0.0437324 0
0.0965286 0.0440528 0
0.11252 0.0441444 0
0.12903 0.044007 0
0.146975 0.0436561 0
0.166186 0.0429999 0
0.186038 0.0420233 0
0.208499 0.0408942 0
0.231144 0.0393378 0
0.254307 0.0374914 0
0.278401 0.035523 0
0.302831 0.0333715 0
0.327749 0.0308385 0
0.352087 0.0280461 0
0.376761 0.0250553 0
0.401877 0.0231174 0
0.42768 0.0212711 0
0.454292 0.0194705 0
0.481468 0.0175937 0
0.510079 0.0155337 0
0.539712 0.0131838 0
0.570947 0.0109407 0
0.603311 0.00869764 0
0.636484 0.00643931 0
0.671 0.00437934 0
0.705776 0.00250248 0
0.740871 0.0010071 0
0.776944 0 0
0.813519 0 0
0.849607 0 0
0.886107 0 0
0.922972 0 0
0.958724 0 0
0.995117 0 0
1 0 0
1 0 0
1 0 0
1 0 0
1 0 0
1 0 0
1 0 0
1 0 0
1 0 0
1 0 0
1 0 0
1 0 0
1 0 0
1 0 0
1 0 0
1 0 0
1 0 0
1 0 0
1 0 0
0 0.056611 0
0 0.0563058 0
0 0.0556649 0
0 0.0555581 0
0 0.0554818 0
0.00141909 0.0551766 0
0.00935378 0.0547341 0
0.0187991 0.0537728 0
0.028809 0.0529183 0
0.0394446 0.0518502 0
0.0499428 0.0506447 0
0.0617533 0.049958 0
0.0747234 0.0499886 0
0.089662 0.0504311 0
0.105745 0.0506447 0
0.12285 0.0508583 0
0.141527 0.0507668 0
0.161517 0.0502327 0
0.182513 0.0495003 0
0.205798 0.0482795 0
0.230182 0.046891 0
0.254902 0.0446632 0
0.280079 0.0425116 0
0.305608 0.0402075 0
0.330938 0.0377508 0
0.356161 0.035172 0
0.381506 0.0325322 0
0.406607 0.0292363 0
0.432044 0.0256504 0
0.458213 0.0233005 0
0.485405 0.0211795 0
0.513298 0.0189975 0
0.542046 0.0168765 0
0.573053 0.0146334 0
0.605554 0.0120851 0
0.639307 0.00968948 0
0.673732 0.00755322 0
0.708415 0.00579843 0
0.744106 0.00410468 0
0.77998 0.00282292 0
0.816678 0.00247196 0
0.85301 0.00204471 0
0.889982 0.00184634 0
0.926131 0.00161746 0
0.96286 0.00132753 0
0.999741 0.00102235 0
1 0.000518807 0
1 1.5259e-05 0
1 0 0
1 0 0
1 0 0
1 0 0
1 0 0
1 0 0
1 0 0
1 0 0
1 0 0
1 0 0
1 0 0
1 0 0
1 0 0
1 0 0
1 0 0
1 0 0
1 0 0
0 0.0645914 0
0 0.0643168 0
0 0.0636912 0
0 0.0637064 0
0 0.0636149 0
0 0.0634165 0
0.00511177 0.0629587 0
0.0145724 0.0620737 0
0.024506 0.0612192 0
0.035111 0.0601816 0
0.0460517 0.0591135 0
0.0569924 0.0578012 0
0.0688182 0.057084 0
0.0828107 0.0570382 0
0.0985885 0.0572976 0
0.11574 0.0576333 0
0.134722 0.0576944 0
0.155566 0.0574655 0
0.177172 0.056611 0
0.201465 0.0552834 0
0.226719 0.0539559 0
0.252735 0.0524605 0
0.279881 0.0507515 0
0.306538 0.0487068 0
0.333242 0.0464332 0
0.359228 0.0437324 0
0.385031 0.0411994 0
0.410895 0.0386053 0
0.436576 0.0354467 0
0.462882 0.0315251 0
0.489464 0.0273442 0
0.517296 0.0244755 0
0.54609 0.0220798 0
0.576745 0.0196384 0
0.608835 0.017258 0
0.641932 0.0151369 0
0.676677 0.0128939 0
0.711833 0.0105592 0
0.747524 0.00851453 0
0.78378 0.00733959 0
0.820157 0.00683604 0
0.857221 0.00663767 0
0.894026 0.00648508 0
0.930785 0.00608835 0
0.968002 0.00584421 0
1 0.00540169 0
1 0.00483711 0
1 0.0039826 0
1 0.00309758 0
1 0.0021973 0
1 0.00129702 0
1 0.000442512 0
1 0 0
1 0 0
1 0 0
1 0 0
1 0 0
1 0 0
1 0 0
1 0 0
1 0 0
1 0 0
1 0.000823987 0
1 0.00265507 0
1 0.00486763 0
0 0.0728313 0
0 0.072694 0
0 0.0720531 0
0 0.0721447 0
0 0.0720836 0
0 0.0717021 0
0.000823987 0.0713512 0
0.0104219 0.070573 0
0.0202487 0.0696117 0
0.0309453 0.0686809 0
0.041825 0.0675975 0
0.0531167 0.0663462 0
0.0643626 0.0652781 0
0.0771038 0.0643473 0
0.0919814 0.0641794 0
0.108507 0.0642557 0
0.12755 0.0645609 0
0.148531 0.0645151 0
0.17084 0.0641031 0
0.19585 0.0633249 0
0.222019 0.0620584 0
0.249195 0.0606546 0
0.277104 0.0589456 0
0.305882 0.0575113 0
0.333989 0.0556649 0
0.360876 0.0534371 0
0.387579 0.0513161 0
0.413825 0.0489052 0
0.440238 0.0462654 0
0.467094 0.0433204 0
0.494057 0.0401617 0
0.522026 0.0356756 0
0.550729 0.0307774 0
0.58175 0.0275883 0
0.613413 0.0246128 0
0.646738 0.0221256 0
0.680705 0.0198215 0
0.715236 0.0173953 0
0.751125 0.0153201 0
0.786923 0.0137331 0
0.824826 0.0131075 0
0.862272 0.0128481 0
0.898802 0.0124208 0
0.9364 0.0122225 0
0.972915 0.011902 0
1 0.0113527 0
1 0.0106203 0
1 0.00972 0
1 0.00862135 0
1 0.00749218 0
1 0.00633249 0
1 0.00521859 0
1 0.00411994 0
1 0.0030518 0
1 0 0
1 0 0
1 0 0
1 0 0
1 0.0009308 0
1 0.00228885 0
1 0.00395209 0
1 0.00588998 0
1 0.00808728 0
1 0.0105898 0
1 0.0134279 0
0 0.0814374 0
0 0.0813916 0
0 0.0806897 0
0 0.0808118 0
0 0.0806287 0
0 0.0804456 0
0 0.0802167 0
0.00552377 0.0794537 0
0.0155795 0.0785534 0
0.0260929 0.0775921 0
0.0370642 0.0766461 0
0.0483101 0.0753643 0
0.0598001 0.0742046 0
0.0719921 0.0730144 0
0.0856031 0.0718395 0
0.101183 0.0715496 0
0.119692 0.0717174 0
0.140856 0.0719463 0
0.16379 0.07187 0
0.189319 0.0713359 0
0.216632 0.0704509 0
0.244388 0.068986 0
0.273259 0.0674601 0
0.302724 0.0658122 0
0.332158 0.0640574 0
0.360906 0.0623941 0
0.388739 0.0606699 0
0.416159 0.058732 0
0.443458 0.0566262 0
0.470802 0.05449 0
0.498375 0.0522621 0
0.526726 0.0492866 0
0.556268 0.0460975 0
0.587106 0.0410773 0
0.619135 0.0351263 0
0.652125 0.0317235 0
0.685954 0.0285801 0
0.720989 0.0260014 0
0.756146 0.0235752 0
0.792126 0.0221561 0
0.829496 0.0217136 0
0.865965 0.0213626 0
0.903441 0.0209659 0
0.941283 0.0204013 0
0.978821 0.0198367 0
1 0.0192569 0
1 0.0183108 0
1 0.0169985 0
1 0.0157015 0
1 0.0144045 0
1 0.0130922 0
1 0.011841 0
1 0.0104677 0
1 0.00456245 0
1 0.00363165 0
